!! 00000] TT[WS
!!!OTL: Qiu nÅ
!!!ARE: Asia, China,ˇShanxi Xixian
!! Ethnic Group: Han
!! WI, 80 (2)
!!!SCT: J0099
!!!YEM: Copyright 1995, estate of Helmut Schaffrath.
**kern
*ICvox
*Ivox
*M2/4
*k[b-]
*F:
{8g
8g
8g
8a
=1
2cc
=2
8cc
8ff
8cc
8a
=3
2g}
=4
{4a
8a
8a
=5
8g
8a
8g
8f
=6
8g
8f
4d
=7
2c}
=8
{4d
4f
=9
4d
4f
=10
4d
4c
=11
2d}
=12
{8cc
8cc
8cc
8dd
=13
4cc
8a
8g
=14
8a
8g
4f
=15
4.g
8a
=16
8g
8f
4d
=17
2c}
==
!!!AGN: Xiaodiao. Suku
!!!ONB: ESAC (Essen Associative Code) Database: CHINA
!!!AMT: simple duple
!!!AIN: vox
!!!EED: Helmut Schaffrath
!!!EEV: 1.0
*-
